symbols/web/cookie/materialsymbolsoutlined/cookie_gradN25fill1_20px.svg

<svg xmlns="http://www.w3.org/2000/svg" height="20" width="20"><path d="M8.75 8.312q.521 0 .875-.354t.354-.875q0-.521-.354-.875t-.875-.354q-.5 0-.865.354-.364.354-.364.875 0 .5.354.865.354.364.875.364Zm-1.667 4.167q.521 0 .875-.354t.354-.875q0-.521-.354-.875t-.875-.354q-.5 0-.864.354-.365.354-.365.875 0 .5.354.865.354.364.875.364Zm5.417.875q.354 0 .604-.25t.25-.604q0-.354-.25-.604t-.604-.25q-.333 0-.594.25-.26.25-.26.604 0 .333.25.594.25.26.604.26ZM10 18.125q-1.688 0-3.167-.646-1.479-.646-2.573-1.739-1.093-1.094-1.739-2.573-.646-1.479-.646-3.167 0-2.042.865-3.687.864-1.646 2.26-2.73Q6.396 2.5 8.156 2.062q1.761-.437 3.532-.041-.146.896.124 1.677.271.781.844 1.312.573.532 1.386.771.812.24 1.729.094-.25 1.021.344 2.146.593 1.125 1.968 1.167.188 1.791-.375 3.416-.562 1.625-1.656 2.854-1.094 1.23-2.656 1.948-1.563.719-3.396.719Z"/></svg>

<svg xmlns="http://www.w3.org/2000/svg" height="20" width="20"><path d="M8.75 8.312Q9.271 8.312 9.625 7.958Q9.979 7.604 9.979 7.083Q9.979 6.562 9.625 6.208Q9.271 5.854 8.75 5.854Q8.25 5.854 7.885 6.208Q7.521 6.562 7.521 7.083Q7.521 7.583 7.875 7.948Q8.229 8.312 8.75 8.312ZM7.083 12.479Q7.604 12.479 7.958 12.125Q8.312 11.771 8.312 11.25Q8.312 10.729 7.958 10.375Q7.604 10.021 7.083 10.021Q6.583 10.021 6.219 10.375Q5.854 10.729 5.854 11.25Q5.854 11.75 6.208 12.115Q6.562 12.479 7.083 12.479ZM12.5 13.354Q12.854 13.354 13.104 13.104Q13.354 12.854 13.354 12.5Q13.354 12.146 13.104 11.896Q12.854 11.646 12.5 11.646Q12.167 11.646 11.906 11.896Q11.646 12.146 11.646 12.5Q11.646 12.833 11.896 13.094Q12.146 13.354 12.5 13.354ZM10 18.125Q8.312 18.125 6.833 17.479Q5.354 16.833 4.26 15.74Q3.167 14.646 2.521 13.167Q1.875 11.688 1.875 10Q1.875 7.958 2.74 6.313Q3.604 4.667 5 3.583Q6.396 2.5 8.156 2.062Q9.917 1.625 11.688 2.021Q11.542 2.917 11.812 3.698Q12.083 4.479 12.656 5.01Q13.229 5.542 14.042 5.781Q14.854 6.021 15.771 5.875Q15.521 6.896 16.115 8.021Q16.708 9.146 18.083 9.188Q18.271 10.979 17.708 12.604Q17.146 14.229 16.052 15.458Q14.958 16.688 13.396 17.406Q11.833 18.125 10 18.125Z"/></svg>
